Obsidian/actions/16s/mail-flag.svg

<svg height="16" viewBox="0 0 16 16" width="16" xmlns="http://www.w3.org/2000/svg"><path d="m2 2c-1.108 0-2 .892-2 2v8c0 1.108.892 2 2 2h7.5996094v-5.8007812l-1.5996094.8007812-6-3v-2l6 3 6-3v2l-1.439453.71875c.099.043.192297.0974094.279297.1621094l3.160156 2.3691406v-5.25c0-1.108-.892-2-2-2zm9 6v6h1v-2l4-1-4-3z" fill="#bebebe"/></svg>

<svg xmlns="http://www.w3.org/2000/svg" width="16" height="16" viewBox="0 0 16 16">
 <defs>
  <style id="current-color-scheme" type="text/css">
   .ColorScheme-Text { color:#bebebe; } .ColorScheme-Highlight { color:#4285f4; }
  </style>
 </defs>
 <path style="fill:currentColor" class="ColorScheme-Text" d="M 2 2 C 0.892 2 0 2.892 0 4 L 0 12 C 0 13.108 0.892 14 2 14 L 9.5996094 14 L 9.5996094 8.1992188 L 8 9 L 2 6 L 2 4 L 8 7 L 14 4 L 14 6 L 12.560547 6.71875 C 12.659547 6.76175 12.752844 6.8161594 12.839844 6.8808594 L 16 9.25 L 16 4 C 16 2.892 15.108 2 14 2 L 2 2 z M 11 8 L 11 14 L 12 14 L 12 12 L 16 11 L 12 8 L 11 8 z"/>
</svg>
